X:1607
T:A Doubling Scale
C: Kevin Fraser
B: https://bagpipes.ksfraser.com
O: Kevin Fraser
Z:Kevin Fraser
Q:1/4=78
K:HP
M:4/4
L:1/4
%%MIDI gracedivider 4
%%MIDI gchord
%%MIDI beatstring 
[| G {gAd}A A {gAd}A   | B {gAd}A c {gAd}A | d {gAd}A e   {gAd}A   | f {gAd}A g {aAd}A | 
w: EM hentenhenten EN henten | O henten O henten |w: | A henten E henten | VE henten DI henten |
w: |||- thumb gracenote ^|
   a {Ad}A   a {Ad}A   | g {aAd}A   f {gAd}A |e {gAd}A d {gAd}A | c {gAd}A B {gAd}A |
w: I enten   I enten   | DI henten VE henten |E henten A henten | O henten O henten |
w: ^ Half Doublings ^|
   A {gAd}A G {gAd}A |]
w: EN henten EM henten :|
W:
W: Note the High A gracenote from High G for this doubling!
W: Note the Half Doubling from High A


